X:1
T:Loyalty to Christ
T:Flora Hamilton Cassel
T:Loyalty to Christ
T:Public Domain
T:Public Domain
T:Public Domain
C:Flora Hamilton Cassel
Z:Public Domain
%%score ( 1 2 ) ( 3 4 )
L:1/8
M:2/4
K:F
V:1 treble 
V:2 treble 
V:3 bass 
V:4 bass 
V:1
 C | [CF]>[CF] [CF][CF] | [CF]3 [EG] | [FA]>[FA] [FA][FA] | [FA]3 [Fc] | [Af]>[Af] [Af]2 | %6
w: 1.~From|ver hill and plain|there comes|the sig- nal strain,|’Tis loy-|al- ty, loy-|
w: 2.~O|ye brave, the sound|that moves|the earth a- round,|’Tis loy-|al- ty, loy-|
w: 3.~Come,|our loy- al throng,|we’ll rout|the gi- ant wrong,|’Tis loy-|al- ty, loy-|
w: 4.~The|of youth we lay|at Je-|sus’ feet to- day,|’Tis loy-|al- ty, loy-|
 [Ac]>[Ac] [Ac]2 | [FA]>[FA] [GB][FA] | [EG]3 C | [CF]>[CF] [CF][CF] | [CF]3 [EG] | %11
w: al- ty, loy-|al- ty to Christ;|Its mu-|sic rolls a- long,|the hills|
w: al- ty, loy-|al- ty to Christ;|A- rise|to dare and do,|ring out|
w: al- ty, loy-|al- ty to Christ;|Where Sa-|tan’s ban- ners float|we’ll send|
w: al- ty, loy-|al- ty to Christ;|His Gos-|pel we’ll pro- claim,|through- out|
 [FA]>[FA] [FA][FA] | [FA]3 [Fc] | [Af]>[Af] [Af]2 | [Ac]>[Ac] [Ac][GB] | [FA]>[FB] [FA][EG] | %16
w: take up the song,|Of loy-|al- ty, loy-|al- ty, yes, loy-|al- ty to Christ.|
w: the watch- word true,|Of loy-|al- ty, loy-|al- ty, yes, loy-|al- ty to Christ.|
w: the bu- gle note,|Of loy-|al- ty, loy-|al- ty, yes, loy-|al- ty to Christ.|
w: the world’s do- main,|Of loy-|al- ty, loy-|al- ty, yes, loy-|al- ty to Christ.|
 F4 ||"^Refrain" [Fd]3 [Fd] | [Fd]>[DB] [Fd]2 | [Ff]3 [Af] | [Af]>[Ac] [Ac]2 | [F=B]3 [FB] | %22
w: ||||||
w: “On|vic- to-|ry! On to|vic- to-|ry!” Cries our|great Com-|
w: ||||||
w: ||||||
 [F=B][FB] [FA][FB] | EF GA | [Bc]3 [Ac] | [CF]>[CF] [CF][CF] | [CF]3 [EG] | [FA]>[FA] [FA][FA] | %28
w: ||||||
w: mand- er, “On!” We’ll|move * * *|at His|com- mand, We’ll soon|pos- sess|the land, Through loy-|
w: ||||||
w: ||||||
 [FA]3 [Fc] | [Af]>[Af] [Af]2 | [Ac]>[Ac] [Ac][GB] | [FA]>[FB] [FA][EG] | F6 |] %33
w: |||||
w: al- ty,|loy- al- ty,|Yes, loy- al- ty|to Christ. * *||
w: |||||
w: |||||
V:2
 C | x4 | x4 | x4 | x4 | x4 | x4 | x4 | x4 | x4 | x4 | x4 | x4 | x4 | x4 | x4 | F4 || x4 | x4 | %19
w: o-|||||||||||||||||||
w: hear,||||||||||||||||to|||
w: join|||||||||||||||||||
w: strength|||||||||||||||||||
 x4 | x4 | x4 | x4 | c4- | x4 | x4 | x4 | x4 | x4 | x4 | x4 | x4 | F6 |] %33
w: ||||||||||||||
w: ||||||||||||||
w: ||||||||||||||
w: ||||||||||||||
V:3
 [C,C] | [F,A,]>[F,A,] [F,A,][F,A,] | [F,A,]3 [C,C] | [F,C]>[F,C] [F,C][F,C] | [F,C]3 [F,A,] | %5
w: ~|~ ~ ~ ~|~ ~|~ ~ ~ ~|~ ~|
 [F,C]>[F,C] [F,C]2 | [F,F]>[F,F] [F,F]2 | [F,C]>[F,C] [E,C][F,C] | [C,C]3 [C,C] | %9
w: ~ ~ ~|~ ~ ~|~ ~ ~ ~|~ ~|
 [F,A,]>[F,A,] [F,A,][F,A,] | [F,A,]3 [C,C] | [F,C]>[F,C] [F,C][F,C] | [F,C]3 [F,A,] | %13
w: ~ ~ ~ ~|~ ~|~ ~ ~ ~|~ ~|
 [F,C]>[F,C] [F,C]2 | [F,F]>[F,F] [F,F][B,,D] | [C,C]>[C,D] [C,C][C,B,] | [F,A,]4 || %17
w: ~ ~ ~|~ ~ ~ ~|~ ~ ~ ~|~|
 [B,,B,]3 [B,,B,] | [B,,B,]>[B,,B,] [B,,B,]2 | [F,A,]3 [F,C] | [F,C]>[F,F] [F,F]2 | [G,D]3 G, | %22
w: ~ ~|~ ~ ~|~ ~|~ ~ ~|~ ~|
 [G,,G,][G,,G,] [G,,G,][G,,G,] | G,A, B,C | [C,E]3 [F,F] | [F,A,]>[F,A,] [F,A,][F,A,] | %26
w: ~ ~ ~ great|Com- mand- er, “On!”|||
 [F,A,]3 [C,C] | [F,C]>[F,C] [F,C][F,C] | [F,C]3 [F,A,] | [F,C]>[F,C] [F,C]2 | %30
w: ||||
 [F,F]>[F,F] [F,F][B,,D] | [C,C]>[C,D] [C,C][C,B,] | [F,A,]6 |] %33
w: |||
V:4
 x | x4 | x4 | x4 | x4 | x4 | x4 | x4 | x4 | x4 | x4 | x4 | x4 | x4 | x4 | x4 | x4 || x4 | x4 | %19
 x4 | x4 | x4 | x4 | C,4- | x4 | x4 | x4 | x4 | x4 | x4 | x4 | x4 | x6 |] %33

